_inc/systems/logos/sonicretro.svg

<?xml version="1.0" encoding="utf-8"?>
<svg height="159.327" viewBox="0 0 1675.757 223.058" width="1196.97" xmlns="http://www.w3.org/2000/svg">
  <g fill="#010180" stroke="#0268d0" stroke-width="7">
    <path d="M930.633 66.413h114.738q20.08 0 34.627 15.571 14.547 15.367 14.547 36.88 0 21.719-14.547 37.086-12.293 13.113-28.685 14.957l43.232 59.418h-59.008l-42.822-59.009h-3.073v59.009h-59.009zm59.009 39.339v26.226h32.782q5.327 0 9.22-3.688 3.893-3.893 3.893-9.425 0-5.328-3.893-9.22-3.893-3.893-9.22-3.893z" transform="matrix(.96314 0 0 1.03828 -39.237 -44.65)" style="fill: rgb(255, 255, 255); stroke: rgb(255, 255, 255);"/>
    <path d="M1053.221 239.845V69.16h143.377v44.378h-75.102v17.069h75.102v47.792h-75.102v17.069h75.102v44.378z" transform="matrix(1.00295 0 0 .99706 -39.237 -44.65)" style="fill: rgb(255, 255, 255); stroke: rgb(255, 255, 255);"/>
    <path d="M1176.197 119V70.37h159.783V119h-48.63v125.046h-62.523V119z" transform="matrix(1.02051 0 0 .9799 -39.237 -44.65)" style="fill: rgb(255, 255, 255); stroke: rgb(255, 255, 255);"/>
    <path d="M1416.543 66.413h114.739q20.079 0 34.626 15.571 14.547 15.367 14.547 36.88 0 21.719-14.547 37.086-12.293 13.113-28.684 14.957l43.231 59.418h-59.008l-42.822-59.009h-3.073v59.009h-59.008zm59.009 39.339v26.226h32.782q5.327 0 9.22-3.688 3.893-3.893 3.893-9.425 0-5.328-3.893-9.22-3.893-3.893-9.22-3.893z" transform="matrix(.96314 0 0 1.03828 -39.237 -44.65)" style="fill: rgb(255, 255, 255); stroke: rgb(255, 255, 255);"/>
    <path d="M1557.582 148.748q0-38.138 26.503-64.209 26.502-26.287 68.303-26.287 42.23 0 68.733 24.132 26.502 24.133 27.795 66.364 0 38.353-28.441 65.286-28.442 26.933-68.087 26.933-39.862 0-67.441-26.933-27.364-26.933-27.364-65.286zm74.983-25.425q-14.006 9.696-19.392 23.701-5.387 14.005 3.232 26.718 9.05 12.281 23.916 11.85 15.083-.43 28.873-10.557 14.005-9.265 19.392-23.27 5.386-14.221-3.017-26.934-9.05-12.497-24.132-11.85-14.867.646-28.872 10.342z" transform="matrix(.97865 0 0 1.02182 -39.237 -44.65)" style="fill: rgb(255, 255, 255); stroke: rgb(255, 255, 255);"/>
  </g>
  <g>
    <path d="M 22.903 75.445 C 22.903 59.752 30.291 46.789 45.067 36.555 C 59.993 26.321 79.594 21.545 103.869 22.228 C 125.882 21.545 148.875 22.637 172.848 25.502 L 159.957 67.052 C 150.156 65.824 137.265 65.279 121.284 65.415 C 105.452 65.551 96.782 67.871 95.275 72.374 C 93.767 76.877 95.727 79.947 101.155 81.584 C 106.583 83.085 116.006 84.313 129.425 85.268 C 143.447 86.224 155.509 90.863 165.611 99.186 C 175.863 107.374 180.989 119.177 180.989 134.596 C 181.743 150.697 175.034 164.138 160.862 174.918 C 146.839 185.697 130.254 190.814 111.106 190.269 C 91.807 191.906 65.421 191.087 31.949 187.813 L 46.65 146.263 C 84.796 147.764 105.452 146.126 108.618 141.35 C 111.935 136.575 110.503 133.095 104.321 130.911 C 98.743 129.137 90.601 128.251 79.895 128.251 C 69.191 128.114 57.28 124.294 44.162 116.789 C 29.688 106.964 22.602 93.183 22.903 75.445 L 22.903 75.445 Z" stroke-width="7" style="fill: rgb(255, 255, 255); stroke: rgb(255, 255, 255);"/>
    <path d="M 190.45 109.704 C 190.45 85.115 198.96 64.417 215.98 47.607 C 232.999 30.66 254.93 22.186 281.773 22.186 C 308.894 22.186 330.964 29.965 347.983 45.524 C 365.002 61.083 373.927 82.476 374.758 109.704 C 374.758 134.432 365.625 155.477 347.36 172.842 C 329.096 190.207 307.233 198.889 281.773 198.889 C 256.175 198.889 234.521 190.207 216.809 172.842 C 199.237 155.477 190.45 134.432 190.45 109.704 L 190.45 109.704 Z M 262.679 85.115 C 253.685 91.366 247.458 99.007 243.999 108.037 C 240.539 117.067 241.577 125.68 247.113 133.876 C 252.924 141.794 260.603 145.614 270.15 145.336 C 279.836 145.059 289.107 141.655 297.963 135.126 C 306.957 129.152 313.183 121.651 316.643 112.622 C 320.102 103.453 319.133 94.77 313.737 86.574 C 307.926 78.517 300.177 74.697 290.491 75.114 C 280.943 75.53 271.673 78.864 262.679 85.115 L 262.679 85.115 Z" stroke-width="7" style="fill: rgb(255, 255, 255); stroke: rgb(255, 255, 255);"/>
    <path d="M 382.451 195.556 L 382.451 23.039 L 463.46 23.039 L 503.964 105.846 L 503.964 23.04 L 557.97 23.04 L 557.97 195.556 L 483.711 195.556 L 436.457 112.749 L 436.457 195.556 L 382.451 195.556 Z" stroke-width="7" style="fill: rgb(255, 255, 255); stroke: rgb(255, 255, 255);"/>
    <path d="M 570.211 195.555 L 570.211 23.04 L 646.688 23.04 L 646.688 195.555 L 570.211 195.555 Z" stroke-width="7" style="fill: rgb(255, 255, 255); stroke: rgb(255, 255, 255);"/>
    <path d="M 654.806 110.253 C 654.241 86.419 662.507 65.998 679.604 48.993 C 696.701 31.849 718.108 22.998 743.825 22.441 C 766.432 21.465 785.367 22.302 800.628 24.949 L 781.976 87.464 C 779.998 84.537 776.606 81.61 771.802 78.683 C 766.998 75.756 760.286 75.268 751.667 77.22 C 743.048 79.031 734.499 83.422 726.021 90.391 C 717.967 96.803 712.739 103.981 710.336 111.926 C 707.935 119.872 709.701 127.05 715.635 133.462 C 719.733 139.873 726.374 143.288 735.559 143.706 C 744.743 143.985 753.645 141.197 762.264 135.344 C 770.883 129.071 777.383 123.565 781.763 118.827 L 809.105 191.376 C 790.595 196.394 768.835 198.903 743.825 198.903 C 717.543 197.23 696.136 188.309 679.603 172.141 C 663.071 155.972 654.805 135.343 654.805 110.254 L 654.806 110.253 Z" stroke-width="7" style="fill: rgb(255, 255, 255); stroke: rgb(255, 255, 255);"/>
  </g>
</svg>

<svg xmlns="http://www.w3.org/2000/svg" viewBox="0 0 1675.76 223.06"><g fill="currentColor" stroke="currentColor" stroke-width="7"><path d="M930.63 66.41h114.74q20.08 0 34.63 15.57 14.55 15.37 14.55 36.88 0 21.72-14.55 37.09-12.3 13.11-28.69 14.96l43.24 59.41h-59.01l-42.82-59h-3.08v59h-59zm59.01 39.34v26.23h32.78q5.33 0 9.22-3.69 3.9-3.9 3.9-9.42 0-5.33-3.9-9.22t-9.22-3.9z" style="fill:#fff;stroke:#fff" transform="matrix(.96314 0 0 1.03828 -39.24 -44.65)"/><path d="M1053.22 239.85V69.16h143.38v44.38h-75.1v17.07h75.1v47.79h-75.1v17.07h75.1v44.38z" style="fill:#fff;stroke:#fff" transform="matrix(1.00295 0 0 .99706 -39.24 -44.65)"/><path d="M1176.2 119V70.37h159.78V119h-48.63v125.05h-62.52V119z" style="fill:#fff;stroke:#fff" transform="matrix(1.02051 0 0 .9799 -39.24 -44.65)"/><path d="M1416.54 66.41h114.74q20.08 0 34.63 15.57 14.54 15.37 14.54 36.88 0 21.72-14.54 37.09-12.3 13.11-28.69 14.96l43.23 59.41h-59l-42.83-59h-3.07v59h-59zm59.01 39.34v26.23h32.78q5.33 0 9.22-3.69 3.9-3.9 3.9-9.42 0-5.33-3.9-9.22t-9.22-3.9z" style="fill:#fff;stroke:#fff" transform="matrix(.96314 0 0 1.03828 -39.24 -44.65)"/><path d="M1557.58 148.75q0-38.14 26.5-64.21 26.5-26.29 68.3-26.29 42.24 0 68.74 24.13 26.5 24.14 27.8 66.37 0 38.35-28.45 65.28-28.44 26.94-68.08 26.94-39.86 0-67.44-26.94-27.37-26.93-27.37-65.28zm74.99-25.43q-14.01 9.7-19.4 23.7t3.23 26.72q9.05 12.28 23.92 11.85 15.08-.43 28.87-10.56 14-9.26 19.4-23.27 5.38-14.22-3.02-26.93-9.05-12.5-24.13-11.85-14.87.65-28.88 10.34z" style="fill:#fff;stroke:#fff" transform="matrix(.97865 0 0 1.02182 -39.24 -44.65)"/></g><path stroke-width="7" d="M22.9 75.44q0-23.53 22.17-38.88 22.38-15.35 58.8-14.33 33.01-1.03 68.98 3.27l-12.9 41.55q-14.7-1.84-38.67-1.63-23.75.2-26 6.95-2.27 6.76 5.88 9.21 8.13 2.25 28.27 3.69 21.03 1.43 36.18 13.92Q181 111.47 181 134.59q1.12 24.16-20.13 40.33-21.03 16.17-49.75 15.35-28.95 2.46-79.16-2.46l14.7-41.55q57.22 2.25 61.97-4.91 4.97-7.16-4.3-10.44-8.37-2.66-24.42-2.66-16.06-.21-35.74-11.46-21.7-14.73-21.26-41.35Zm167.55 34.26q0-36.88 25.53-62.1 25.53-25.41 65.8-25.41 40.67 0 66.2 23.33 25.53 23.35 26.78 64.18 0 37.1-27.4 63.14-27.4 26.05-65.59 26.05-38.4 0-64.96-26.05-26.36-26.03-26.36-63.14Zm72.23-24.59q-13.5 9.39-18.68 22.93-5.19 13.54 3.11 25.84 8.72 11.86 23.04 11.46 14.53-.43 27.81-10.21 13.5-8.97 18.68-22.5 5.2-13.76-2.9-26.06-8.71-12.08-23.25-11.46-14.33.63-27.81 10Zm119.77 110.45V23.04h81.01l40.5 82.8v-82.8h54.01v172.52h-74.26l-47.25-82.81v82.8zm187.76 0V23.03h76.48v172.52zm84.59-85.31q-.84-35.74 24.8-61.26 25.64-25.72 64.23-26.55 33.9-1.47 56.8 2.5l-18.65 62.52q-2.97-4.38-10.18-8.78-7.2-4.38-20.13-1.46-12.93 2.72-25.65 13.17-12.08 9.62-15.68 21.54t5.3 21.53q6.14 9.62 19.92 10.25 13.78.42 26.7-8.37 12.93-9.41 19.5-16.51l27.35 72.55q-27.77 7.52-65.28 7.52-39.43-2.51-64.23-26.76t-24.8-61.89Z" style="fill:#fff;stroke:#fff"/></svg>
